X: 2842
T: Barbra Streisand's Trip To Saginaw
R: reel
M: 4/4
K: Amixolydian
ag|:gedg eAAA|BAGB AEEE|GABG Adea|aged g2ba|
aged eAAA|BAGB AEEE|GABG Adea|1 gedB A2a2:|2 gedB A2 cd||
|:eAfA e2 fg|abae gddd|eAfA e2 fg|1 abag a2ge:|2 abag agfe||
|:dggg BddB|GBBB edcd|e2cA GAFA|1 EAAE Aefe:|2 EAAE A2e2||

